X: 1454
T: Ancient Clan March
R: polka
M: 2/4
K: Gdorian
M:2/4
d|:g2gf/g/|agfd|c/=B/c/d/ f>g|ag fd|
g2gf/g/|ag fd|d/^c/d/e/ fA|1 G2Gd:|2 G2Gd/c/|
|:B/A/B/c/ BG|A/G/^F/G/ AB/c/|d/^c/d/e/ fA|c/B/A/G/ FD|
B/A/B/c/ BG|A/G/^F/G/ AB/c/|d/^c/d/e/ fA|1 G2 Gd/c/:|2 G2Gd||

